X:6
T:Galway Hornpipe
R:hornpipe
O:Ireland
M:4/4
L:1/8
K:D
FE | "D" D2 FA dAFD | "A" CDEF    "(G)" G2 FE | "D" D2        FA        dcdf | "G" edcB "A" (3(ABA) (3(GFE) |
     "D" D2 FA dAFD | "A" CDEF "G" (3(GAG) FG | "D" AdcB "A" (3(ABA) (3(GFE) | "D" (3(DED)  "A" CE   "D" D2 :|
de | "D" fefg  fedc | "G" BABc   B2   (3(Bcd) | "A" edef          "(G)" edcB | "A" ~A2   ce   a2    (3(ABc) |
     "D" dcde  fdAF | "G" GFGA           BdcB | "D" AdcB "A" (3(ABA) (3(GFE) | "D" (3(DED)  "A" CE   "D" D2 :|
